tools/download-figma-icons/icons/outlined-large/gear.svg

<svg width="64" height="64" viewBox="0 0 64 64" fill="none" xmlns="http://www.w3.org/2000/svg">
<path d="M40.0035 48.9999C38.2286 48.9782 36.4998 48.432 35.0345 47.43C33.5693 46.428 32.4331 45.0149 31.7688 43.3686C31.1046 41.7223 30.942 39.9163 31.3015 38.1777C31.661 36.4392 32.5266 34.8459 33.7894 33.5982C35.0521 32.3505 36.6556 31.5042 38.398 31.1658C40.1405 30.8274 41.9441 31.0119 43.582 31.6962C45.2198 32.3805 46.6188 33.534 47.6027 35.0115C48.5867 36.4891 49.1118 38.2247 49.112 40C49.0961 42.4011 48.1279 44.6977 46.42 46.3853C44.7121 48.0728 42.4042 49.0132 40.0035 48.9999ZM40.0035 34C38.8219 34.0217 37.6731 34.3919 36.7011 35.0643C35.7292 35.7366 34.9774 36.681 34.5402 37.7791C34.103 38.8772 33.9997 40.08 34.2435 41.2365C34.4872 42.3931 35.0671 43.4518 35.9103 44.28C36.7534 45.1081 37.8224 45.6687 38.983 45.8915C40.1436 46.1142 41.3441 45.9891 42.4339 45.5319C43.5236 45.0748 44.4541 44.3058 45.1086 43.3217C45.763 42.3375 46.1123 41.182 46.1125 40C46.0966 38.3945 45.4444 36.861 44.299 35.736C43.1537 34.6111 41.6087 33.9867 40.0035 34Z" fill="black"/>
<path d="M41.8731 63.9998H38.1337C37.3037 63.9994 36.5 63.708 35.8625 63.1764C35.225 62.6447 34.7939 61.9064 34.6443 61.0899L34.2744 58.9999C33.0177 58.6136 31.8047 58.0975 30.655 57.4599L28.9053 58.7099C28.2211 59.1808 27.3938 59.3976 26.5666 59.3227C25.7395 59.2478 24.9646 58.886 24.376 58.2999L21.7365 55.6599C21.1513 55.0729 20.7899 54.2996 20.715 53.474C20.6401 52.6484 20.8565 51.8227 21.3265 51.1399L22.6763 49.14C22.1435 48.0611 21.7085 46.9366 21.3765 45.78L18.947 45.34C18.1334 45.1982 17.3947 44.777 16.8582 44.1491C16.3216 43.5212 16.0208 42.7259 16.0074 41.9V38.16C16.0063 37.3305 16.2973 36.5271 16.8293 35.8907C17.3614 35.2544 18.1005 34.8258 18.917 34.6801L21.6865 34.1701C22.051 33.1869 22.4923 32.234 23.0063 31.3201L21.3465 28.9301C20.8765 28.2474 20.6601 27.4216 20.735 26.5961C20.8099 25.7705 21.1713 24.9971 21.7565 24.4101L24.396 21.7602C24.9846 21.1741 25.7595 20.8123 26.5866 20.7374C27.4138 20.6625 28.2411 20.8793 28.9253 21.3502L31.5048 23.1502C32.3442 22.7581 33.2094 22.4239 34.0944 22.1502L34.6443 19.0002C34.7957 18.1845 35.2273 17.4473 35.8644 16.916C36.5015 16.3846 37.3042 16.0926 38.1337 16.0902H41.8731C42.7026 16.0926 43.5052 16.3846 44.1424 16.916C44.7795 17.4473 45.211 18.1845 45.3625 19.0002L45.9324 22.1402C46.8174 22.4139 47.6826 22.7481 48.5219 23.1402L51.1015 21.3402C51.7857 20.8693 52.613 20.6525 53.4401 20.7274C54.2673 20.8023 55.0422 21.1641 55.6307 21.7502L58.2703 24.4001C58.8555 24.9871 59.2169 25.7605 59.2918 26.5861C59.3666 27.4116 59.1503 28.2374 58.6802 28.9201L57.0005 31.3201C57.4973 32.2356 57.9219 33.1885 58.2703 34.1701L61.0398 34.6801C61.8655 34.8152 62.6163 35.2393 63.1584 35.8766C63.7004 36.514 63.9985 37.3233 63.9993 38.16V41.9C63.9989 42.7302 63.7076 43.534 63.176 44.1716C62.6444 44.8092 61.9063 45.2403 61.0898 45.39L58.6602 45.83C58.3282 46.9866 57.8932 48.1111 57.3604 49.19L58.7102 51.1899C59.1803 51.8727 59.3966 52.6984 59.3218 53.524C59.2469 54.3496 58.8855 55.1229 58.3003 55.7099L55.6307 58.2999C55.0432 58.8877 54.2681 59.2508 53.4404 59.3257C52.6127 59.4006 51.785 59.1827 51.1015 58.7099L49.3518 57.4899C48.2008 58.1171 46.9879 58.6232 45.7324 58.9999L45.3625 61.0599C45.2191 61.882 44.7908 62.6272 44.1526 63.1649C43.5145 63.7025 42.7074 63.9981 41.8731 63.9998ZM30.595 54.2099C30.8745 54.212 31.1479 54.2916 31.3848 54.4399C32.7968 55.3361 34.3378 56.0106 35.9541 56.4399C36.2319 56.5091 36.4836 56.6574 36.6789 56.8669C36.8741 57.0763 37.0043 57.3379 37.0539 57.6199L37.6038 60.6199C37.625 60.7453 37.6898 60.8592 37.7867 60.9415C37.8836 61.0238 38.0065 61.0693 38.1337 61.0699H41.8731C42.0002 61.0693 42.1231 61.0238 42.2201 60.9415C42.317 60.8592 42.3818 60.7453 42.403 60.6199L42.9529 57.6199C43.0024 57.3379 43.1327 57.0763 43.3279 56.8669C43.5231 56.6574 43.7749 56.5091 44.0527 56.4399C45.669 56.0106 47.21 55.3361 48.6219 54.4399C48.8668 54.2786 49.1536 54.1927 49.4468 54.1927C49.74 54.1927 50.0268 54.2786 50.2717 54.4399L52.8112 56.1999C52.9143 56.2743 53.0407 56.3092 53.1673 56.2982C53.294 56.2872 53.4124 56.231 53.5011 56.1399L56.1507 53.4999C56.239 53.4076 56.2931 53.2878 56.3041 53.1605C56.315 53.0332 56.282 52.9059 56.2106 52.7999L54.341 50.0999C54.1833 49.8692 54.0932 49.5991 54.0809 49.3199C54.0685 49.0408 54.1343 48.7637 54.271 48.52C55.0505 47.1663 55.633 45.7083 56.0007 44.19C56.0661 43.9046 56.2136 43.6445 56.425 43.4419C56.6365 43.2394 56.9025 43.1031 57.1905 43.05L60.5699 42.44C60.6916 42.411 60.8 42.342 60.8779 42.2441C60.9559 42.1463 60.9988 42.0251 60.9998 41.9V38.16C60.9993 38.0329 60.9538 37.9099 60.8715 37.813C60.7892 37.716 60.6753 37.6512 60.5499 37.63L56.8705 37C56.5966 36.9526 56.3416 36.8289 56.1347 36.6432C55.9278 36.4575 55.7774 36.2173 55.7007 35.9501C55.3102 34.5644 54.7387 33.2363 54.001 32.0001C53.8439 31.7573 53.7603 31.4743 53.7603 31.1851C53.7603 30.8959 53.8439 30.6129 54.001 30.3701L56.2006 27.1901C56.2731 27.0863 56.3068 26.9604 56.2958 26.8342C56.2849 26.7081 56.2299 26.5899 56.1407 26.5001L53.5011 23.8801C53.4114 23.7909 53.2931 23.7359 53.167 23.725C53.0409 23.714 52.915 23.7477 52.8112 23.8201L49.4818 26.1301C49.2512 26.2872 48.9818 26.3778 48.7031 26.3919C48.4245 26.406 48.1473 26.3431 47.9021 26.2101C46.7432 25.5728 45.511 25.0791 44.2327 24.7401C43.9579 24.667 43.7095 24.5173 43.5165 24.3084C43.3236 24.0994 43.194 23.8399 43.1429 23.5602L42.403 19.5602C42.3818 19.4348 42.317 19.3209 42.2201 19.2385C42.1231 19.1562 42.0002 19.1108 41.8731 19.1102H38.1337C38.0065 19.1108 37.8836 19.1562 37.7867 19.2385C37.6898 19.3209 37.625 19.4348 37.6038 19.5602L36.8639 23.5602C36.8128 23.8399 36.6832 24.0994 36.4903 24.3084C36.2973 24.5173 36.0489 24.667 35.7741 24.7401C34.4958 25.0791 33.2636 25.5728 32.1047 26.2101C31.8594 26.3431 31.5823 26.406 31.3036 26.3919C31.025 26.3778 30.7556 26.2872 30.525 26.1301L27.1956 23.8201C27.0918 23.7477 26.9658 23.714 26.8397 23.725C26.7136 23.7359 26.5954 23.7909 26.5057 23.8801L23.8561 26.5301C23.7668 26.6199 23.7119 26.7381 23.701 26.8642C23.69 26.9904 23.7237 27.1163 23.7961 27.2201L26.0058 30.4001C26.1591 30.6387 26.2406 30.9164 26.2406 31.2001C26.2406 31.4838 26.1591 31.7614 26.0058 32.0001C25.267 33.2148 24.6857 34.5186 24.2761 35.8801C24.2132 36.1563 24.0723 36.4086 23.8703 36.6072C23.6682 36.8057 23.4135 36.942 23.1362 37L19.4869 37.67C19.3615 37.6912 19.2476 37.756 19.1653 37.853C19.083 37.9499 19.0375 38.0729 19.0369 38.2V41.9C19.039 42.0279 19.0848 42.1512 19.1666 42.2494C19.2485 42.3476 19.3615 42.4149 19.4869 42.44L22.8663 43.05C23.1542 43.1031 23.4203 43.2394 23.6317 43.4419C23.8432 43.6445 23.9907 43.9046 24.0561 44.19C24.4027 45.7168 24.9684 47.1853 25.7358 48.55C25.8722 48.7956 25.9379 49.0742 25.9255 49.3548C25.9132 49.6355 25.8233 49.9073 25.6658 50.1399L23.7961 52.8399C23.7248 52.9459 23.6918 53.0732 23.7027 53.2005C23.7136 53.3278 23.7678 53.4476 23.8561 53.5399L26.5057 56.1799C26.5943 56.271 26.7128 56.3272 26.8395 56.3382C26.9661 56.3492 27.0925 56.3143 27.1956 56.2399L29.7351 54.4799C29.9876 54.3045 30.2876 54.2103 30.595 54.2099Z" fill="black"/>
<path d="M14.9478 32.9001C14.8249 32.9143 14.7008 32.9143 14.5779 32.9001C13.441 32.5961 12.3437 32.1598 11.3084 31.6001L10.1886 32.3701C9.60645 32.7725 8.90079 32.9561 8.19637 32.8884C7.49195 32.8206 6.83416 32.506 6.33927 32.0001L4.33961 30.0001C3.85253 29.5033 3.55327 28.8525 3.49308 28.1593C3.43289 27.4661 3.61551 26.7735 4.00966 26.2001L4.87952 24.9402C4.55469 24.2545 4.28066 23.546 4.05966 22.8202L2.47992 22.5402C1.7775 22.4166 1.14208 22.0468 0.687657 21.497C0.233238 20.9472 -0.0104383 20.2534 0.000343019 19.5402V16.7902C-0.0104383 16.077 0.233238 15.3832 0.687657 14.8334C1.14208 14.2837 1.7775 13.9138 2.47992 13.7902L4.32961 13.4502C4.55032 12.8502 4.81086 12.2656 5.10948 11.7003L4.00966 10.1603C3.6034 9.57827 3.41661 8.87106 3.48252 8.16432C3.54842 7.45758 3.86274 6.79711 4.3696 6.30029L6.36927 4.30031C6.87099 3.81267 7.52736 3.51577 8.22482 3.46099C8.92227 3.40621 9.61694 3.59698 10.1886 4.00031L11.9383 5.2003C12.4465 4.96534 12.9672 4.75836 13.4981 4.58031L13.878 2.48032C14.0015 1.77778 14.3713 1.14226 14.921 0.687768C15.4707 0.233276 16.1644 -0.01044 16.8775 0.000343075H19.667C20.3801 -0.01044 21.0738 0.233276 21.6235 0.687768C22.1732 1.14226 22.543 1.77778 22.6665 2.48032L23.0065 4.58031C23.5334 4.76011 24.0506 4.96706 24.5562 5.2003L26.2959 4.00031C26.8747 3.59414 27.5783 3.40551 28.2826 3.46771C28.9869 3.52992 29.6466 3.83897 30.1452 4.34031L32.1449 6.34029C32.6502 6.83837 32.9627 7.49947 33.0268 8.20617C33.0908 8.91287 32.9024 9.61941 32.4948 10.2003L31.395 11.7803C31.84 12.623 32.2016 13.5072 32.4748 14.4202C32.5307 14.6093 32.5487 14.8076 32.5279 15.0036C32.5071 15.1997 32.4479 15.3898 32.3536 15.5629C32.2594 15.7361 32.132 15.889 31.9786 16.013C31.8253 16.1369 31.6491 16.2294 31.46 16.2852C31.2709 16.341 31.0727 16.359 30.8767 16.3382C30.6807 16.3174 30.4907 16.2582 30.3175 16.164C30.1443 16.0697 29.9915 15.9423 29.8675 15.7889C29.7436 15.6356 29.6511 15.4593 29.5953 15.2702C29.3079 14.2907 28.8874 13.3553 28.3455 12.4902C28.1937 12.2416 28.1176 11.9541 28.1265 11.6628C28.1354 11.3716 28.2288 11.0892 28.3955 10.8503L30.0053 8.45028L28.0056 6.45029L25.516 8.18028C25.2874 8.33755 25.0196 8.4283 24.7425 8.44242C24.4653 8.45655 24.1897 8.3935 23.9463 8.26028C23.1087 7.80218 22.2192 7.4463 21.2967 7.20029C21.0192 7.12571 20.769 6.97296 20.5758 6.76023C20.3826 6.54749 20.2546 6.28372 20.2069 6.0003L19.657 3.00032H16.8475L16.2776 6.0003C16.23 6.28372 16.1019 6.54749 15.9087 6.76023C15.7155 6.97296 15.4653 7.12571 15.1878 7.20029C14.2654 7.4463 13.3758 7.80218 12.5382 8.26028C12.2993 8.38464 12.0314 8.4428 11.7625 8.42874C11.4935 8.41467 11.2331 8.32889 11.0085 8.18028L8.48891 6.46029L6.48925 8.46028L8.11897 10.8403C8.28566 11.0792 8.37916 11.3616 8.38803 11.6528C8.39691 11.9441 8.32079 12.2316 8.16896 12.4802C7.63513 13.3496 7.2151 14.2839 6.91917 15.2602C6.84248 15.5275 6.69208 15.7677 6.48518 15.9534C6.27829 16.1391 6.02328 16.2628 5.74937 16.3102L3.00983 16.7802V19.5702L5.53941 20.0002C5.82764 20.0551 6.09401 20.1918 6.30674 20.3939C6.51947 20.596 6.66959 20.8551 6.7392 21.1402C6.988 22.24 7.39554 23.2978 7.949 24.2802C8.08539 24.5258 8.15106 24.8044 8.1387 25.085C8.12635 25.3657 8.03645 25.6375 7.87901 25.8701L6.47925 27.8701L8.47891 29.8701L10.3986 28.5601C10.6424 28.4009 10.9273 28.3162 11.2184 28.3162C11.5096 28.3162 11.7945 28.4009 12.0383 28.5601C13.0611 29.1909 14.1735 29.6629 15.3377 29.9601C15.5288 30.008 15.7085 30.0931 15.8667 30.2105C16.0249 30.3279 16.1584 30.4753 16.2596 30.6443C16.3608 30.8133 16.4277 31.0006 16.4565 31.1955C16.4853 31.3904 16.4755 31.589 16.4276 31.7801C16.3408 32.1049 16.1481 32.3914 15.88 32.5943C15.612 32.7972 15.2839 32.9048 14.9478 32.9001Z" fill="black"/>
</svg>

<svg xmlns="http://www.w3.org/2000/svg" width="64" height="64" fill="none" viewBox="0 0 64 64"><path fill="currentColor" d="M40.004 49a8.998 8.998 0 0 1-8.702-10.822 9 9 0 0 1 16.3-3.166A9 9 0 0 1 49.113 40a9.06 9.06 0 0 1-9.108 9m0-15a5.998 5.998 0 0 0-5.76 7.236A6 6 0 0 0 46.112 40a6.06 6.06 0 0 0-6.108-6"/><path fill="currentColor" d="M41.873 64h-3.74a3.55 3.55 0 0 1-3.489-2.91l-.37-2.09a19 19 0 0 1-3.619-1.54l-1.75 1.25a3.56 3.56 0 0 1-4.529-.41l-2.64-2.64a3.55 3.55 0 0 1-.41-4.52l1.35-2a20 20 0 0 1-1.3-3.36l-2.429-.44a3.55 3.55 0 0 1-2.94-3.44v-3.74a3.53 3.53 0 0 1 2.91-3.48l2.77-.51c.364-.983.805-1.936 1.32-2.85l-1.66-2.39a3.55 3.55 0 0 1 .41-4.52l2.639-2.65a3.56 3.56 0 0 1 4.53-.41l2.579 1.8a20 20 0 0 1 2.59-1l.55-3.15a3.56 3.56 0 0 1 3.489-2.91h3.74A3.56 3.56 0 0 1 45.361 19l.57 3.14q1.329.412 2.59 1l2.58-1.8a3.56 3.56 0 0 1 4.529.41l2.64 2.65a3.55 3.55 0 0 1 .41 4.52L57 31.32q.745 1.376 1.27 2.85l2.769.51A3.53 3.53 0 0 1 64 38.16v3.74a3.55 3.55 0 0 1-2.91 3.49l-2.43.44a20 20 0 0 1-1.3 3.36l1.35 2a3.55 3.55 0 0 1-.41 4.52l-2.67 2.59a3.55 3.55 0 0 1-4.529.41l-1.75-1.22A19 19 0 0 1 45.733 59l-.37 2.06A3.55 3.55 0 0 1 41.874 64m-11.278-9.79c.28.002.553.082.79.23a16.4 16.4 0 0 0 4.57 2 1.48 1.48 0 0 1 1.099 1.18l.55 3a.54.54 0 0 0 .53.45h3.74a.54.54 0 0 0 .529-.45l.55-3a1.48 1.48 0 0 1 1.1-1.18 16.4 16.4 0 0 0 4.569-2 1.5 1.5 0 0 1 1.65 0l2.54 1.76a.53.53 0 0 0 .69-.06l2.649-2.64a.56.56 0 0 0 .06-.7l-1.87-2.7a1.5 1.5 0 0 1-.07-1.58 16.4 16.4 0 0 0 1.73-4.33 1.5 1.5 0 0 1 1.19-1.14l3.379-.61a.56.56 0 0 0 .43-.54v-3.74a.54.54 0 0 0-.45-.53L56.87 37a1.48 1.48 0 0 1-1.17-1.05A16.4 16.4 0 0 0 54.002 32a1.5 1.5 0 0 1 0-1.63l2.2-3.18a.54.54 0 0 0-.06-.69l-2.64-2.62a.54.54 0 0 0-.69-.06l-3.33 2.31a1.52 1.52 0 0 1-1.579.08 16.3 16.3 0 0 0-3.67-1.47 1.5 1.5 0 0 1-1.09-1.18l-.739-4a.54.54 0 0 0-.53-.45h-3.74a.54.54 0 0 0-.53.45l-.74 4a1.5 1.5 0 0 1-1.089 1.18 16.3 16.3 0 0 0-3.67 1.47 1.52 1.52 0 0 1-1.579-.08l-3.33-2.31a.54.54 0 0 0-.69.06l-2.649 2.65a.54.54 0 0 0-.06.69l2.21 3.18a1.48 1.48 0 0 1 0 1.6 16.8 16.8 0 0 0-1.73 3.88 1.48 1.48 0 0 1-1.14 1.12l-3.65.67a.54.54 0 0 0-.45.53v3.7a.56.56 0 0 0 .45.54l3.38.61a1.5 1.5 0 0 1 1.19 1.14 16.2 16.2 0 0 0 1.68 4.36 1.52 1.52 0 0 1-.07 1.59l-1.87 2.7a.56.56 0 0 0 .06.7l2.65 2.64a.53.53 0 0 0 .69.06l2.54-1.76a1.5 1.5 0 0 1 .859-.27"/><path fill="currentColor" d="M14.948 32.9a1.6 1.6 0 0 1-.37 0 15 15 0 0 1-3.27-1.3l-1.12.77A3 3 0 0 1 6.34 32l-2-2a3 3 0 0 1-.33-3.8l.87-1.26a15.5 15.5 0 0 1-.82-2.12l-1.58-.28a3 3 0 0 1-2.479-3v-2.75a3 3 0 0 1 2.48-3l1.85-.34q.33-.9.78-1.75l-1.1-1.54a3 3 0 0 1 .36-3.86l2-2A3 3 0 0 1 10.19 4l1.75 1.2a15 15 0 0 1 1.56-.62l.379-2.1a3 3 0 0 1 3-2.48h2.789a3 3 0 0 1 3 2.48l.34 2.1q.79.27 1.55.62L26.295 4a3 3 0 0 1 3.85.34l1.999 2a3 3 0 0 1 .35 3.86l-1.1 1.58a14.6 14.6 0 0 1 1.08 2.64 1.5 1.5 0 0 1-2.608 1.369 1.5 1.5 0 0 1-.272-.519 11.2 11.2 0 0 0-1.25-2.78 1.5 1.5 0 0 1 .05-1.64l1.61-2.4-2-2-2.489 1.73a1.5 1.5 0 0 1-1.57.08 12 12 0 0 0-2.65-1.06 1.5 1.5 0 0 1-1.09-1.2l-.549-3h-2.81l-.57 3a1.5 1.5 0 0 1-1.09 1.2c-.922.246-1.811.602-2.649 1.06a1.51 1.51 0 0 1-1.53-.08l-2.52-1.72-1.999 2 1.63 2.38a1.5 1.5 0 0 1 .05 1.64c-.534.87-.954 1.804-1.25 2.78a1.48 1.48 0 0 1-1.17 1.05l-2.74.47v2.79l2.53.43a1.53 1.53 0 0 1 1.2 1.14c.249 1.1.657 2.158 1.21 3.14a1.52 1.52 0 0 1-.07 1.59l-1.4 2 2 2 1.92-1.31a1.5 1.5 0 0 1 1.64 0 11.9 11.9 0 0 0 3.299 1.4 1.5 1.5 0 0 1 1.09 1.82 1.51 1.51 0 0 1-1.48 1.12"/></svg>
